X: 100038
M: 3/4
L: 1/8
K: Eb
|:\
(vB,2G,2B,2) | (E2F2G2) | (F2=E2F2) | (c4B2) |\
(F2B3=A) | (B4E2) | (D2A3G) | (G4F2) |
(vB,2G,2B,2) | (E2F2G2) | (F2=E2F2) | (d4c2) |\
|: (F4G2) | (A2G2F2) | (E4G2) | B6 |\
(D4F2) | B6 | (E3GBe) | (d4c2) |
(F4G2) | (A2G2F2) | (E4G2) | B6 |\
(D3FBe) | .c2z2.c2 | .B2z2D2 | E2z2z2 :|


